**kern
*part1
*staff1
*ICklav
*Ipiano
*I"
*>[A,A,B,B]
*>norep[A,B]
*>A
*clefG2
*k[b-]
*F:
*M3/4
*MM144
(>2f
4a
=
2cc
4a
=
2b-
4gg
=
8ffL
8eeJ)
4ee
4r
=
(4ff
4a
4dd
=
4g
4.cc
8a)
=
(2.f
=
*^
2.g)	(4f
.	8em>L
.	8dJ
.	4e)
=	=
(4a	[2.f
4b-	.
4dd)	.
=	=
(8ddL	4f]
8cc	.
8b-	4rA
8a	.
8g	4rA
8fJ	.
*v	*v
=
4g
4b-)
4B- 4e
=
4A 4f
4r
(8.cccL
16bb-Jk
=
4aa)
4aa
(8.aaL
16ggJk
=
4ff)
4ff
(4ff
=
4ee 4gg)
4ee' 4gg'
4ee' 4gg'
=
4ee (4gg
4ff 4aa)
(16cccLL
16ddd
16ccc
16bb-JJ
=
4aa)
4aa
(16aaLL
16bb-
16aa
16ggJJ
=
4ff)
4ff
4ff
=
(4gg
4bb-)
4b- (4ee
=
4a 4ff)
4r
(4ccc
=
4ff)
4r
(4cc
=
4f)
4r
(4c#
=
4.d)
(>16fLL
16aJJ
8ddL
16aL
16ddJJ
=
8ffL
16ddL
16ffJJ
8aa'L)
(8aa
8ff
8ddJ)
=
(>32cc#qLLL>
32eeq
32ggqJJJ
4.bb-)
(16aaLL
16ggJJ
16ffLL
16ee
16dd
16cc#JJ
=
4.bb-)
(16aaLL
16ggJJ
16ffLL
16ee
16dd
16cc#JJ)
=
4.dd
(>16fLL
16aJJ
8ddL
16aL
16ddJJ
=
8ffL
16ddL
16ffJJ
8aa'L)
(8aa
8ff
8ddJ)
=
4.bn 4.dd 4.ff 4.aa-
(16ggLL
16ffJJ
16ee-LL
16dd
16cc
16bJJ
=
4.aa-)
(16ggLL
16ffJJ
16ee-LL
16dd
16cc
16bnJJ)
=
([4cc
16ccLL<]
16g
16cc
16gJJ
16ee-LL
16cc
16ee-
16ccJJ
=
16ggLL
16ee-
16gg
16ee-JJ
4ccc)
4r
=
([4cc
16ccLL]
16a-
16cc
16a-JJ
16ee-LL
16cc
16ee-
16ccJJ
=
16aa-LL
16ee-
16aa-
16ee-JJ
4ccc)
4r
=
([4cc
16ccLL]
16f#
16cc
16f#JJ
16ee-LL
16cc
16ee-
16ccJJ
=
16ff#LL
16ee-
16ff#
16ee-JJ
4ccc
4ff#)
=
(32gqLLL>
32bnq
32ddqJJJ)
(2gg
16ffnLL
16ee-
16dd
16ccJJ
=
2gg
16ffLL
16ee-
16dd
16ccJJ
=
4.gg)
(16aa-LL
16ggJJ
16ffLL
16ee-
16dd
16ccJJ
=
4gg')
4g'
4r
=
(>32gqq
8een)
8r
8ee
8r
8ee
8r
=
(<32bnqq/
(4.gg)
8ff
4dd)
=
*^
(8ddL	4e
8ccJ)	.
2ryy	((\4.g 4.cc\
.	8bn 8dd))
=	=
(2dd	(2bn
4ee)	4cc)
*v	*v
=
(4.ff
(32ggqLLL>
32ffq
32eeqJJJ
8ffL)
8gg
8aaJ)
=
(8aaL
8gg
8ff#
8gg
8ffn
8ddJ
=
8dd#L
8ee
8ff
8ee
8gg
8ffJ
=
8eeL
8ddn
8cc
8bn
8a
8gJ)
=
(8dd#L
8ee)
(8dd#
8ee)
(8dd#
8eeJ)
=
(8ff#L
8gg)
(8ff#
8gg)
(8ffn
8ddnJ)
=
*^
4ryy	(8ddL
.	8ccJ)
(8ddL	4g
8ccJ)	.
(8eeL	4bn
8ddJ)	.
=	=
(4.dd	(2bn
8dd#	.
4ee)	4cc)
*v	*v
=
4.ff
(32ggq/LLL>
32ffq/
32eeq/JJJ)
(8ffL
8gg
8aaJ)
=
(8aaL
8gg
8ff#
8gg
8ffn
8ddJ
=
8dd#L
8ee
8gg
8ff
8ddn
8bnJ)
=
(8ccL
8gJ)
8r
8g
8r
8g
=
8f 8gL
8f 8gJ
8r
8f 8g
8r
8f 8g
=
8e- 8gL
8e- 8gJ
8r
8e- 8g
8r
8e- 8g
=
8f 8gL
8f 8gJ
8r
8f 8g
8r
8f 8g
=
8e- 8gL
8e- 8gJ
8r
8e- 8g
8r
8e- 8g
=
8e- 8a-L
8e- 8a-J
8r
8e- 8a-
8r
8e- 8a-
=
8d 8a-L
8d 8a-J
8r
8d 8a-
8r
8d 8a-
=
8d 8gL
8d 8gJ
8r
8d 8g
8r
8d 8g
=
8c 8gL
8c 8gJ
8r
8c 8g
8c 8fL
8c 8fJ
=
8r
8c 8f
8Bn 8fL
8B 8fJ
8r
8B 8f
=
8r
8c 8e-
8r
8c 8e-
8r
8c 8e-
=
8Bn 8dL
(8e- 8g
8d 8f
8c 8e-
8B 8d
8c) 8e-J
=
8Bn 8dL
(8e- 8g
8d 8f
8c 8e-
8B 8d
8c 8e-J
=
8Bn 8dL
8c 8e-
8B 8d
8c 8e-
8B 8d
8c 8e-J
=
8Bn) 8dL
(8A# 8c#
8B 8d
8c# 8en
8d 8fn
8e) 8gJ
=
4f 4a
4cn 4f 4a
4c 4f 4a
=
*^
2f (2a	2.c
4e 4g)	.
=	=
(16gLK	4Bn 4d
8.fJ)	.
4d 4f	4B
4d 4f	4B
*v	*v
=
(2Bn 2d (2f
4c) 4e)
=
(8e 8gL
8d) 8fJ
(4c 4e
4Bn) 4d
=
8c 8e
8cc'L
8dd'
8ee'
8ff'
8gg'J
=
4aa
4aa
4aa
=
(4.aa
16bbnLL
16aaJJ
4gg)
=
*^
(16ggLK	4bn
8.ffJ)	.
4ff	4b
4ff	4b
=	=
(2ff	(2bn
4ee)	4cc)
*v	*v
=
8ee (8ggL
8dd 8ffJ)
4cc 4ee
4bn 4dd
=
8ee 8ggL
8ee 8ggJ
8r
8dd 8ff
8r
8cc 8ee
=
8r
8f 8dd
8r
8e 8cc
8r
8d 8bn
=
16r
(16eeLL
16gg
16eeJJ)
16r
(16ddLL
16ff
16ddJJ)
16r
(16ccLL
16ee
16ccJJ)
=
16r
(16fLL
16dd
16fJJ)
16r
(16eLL
16cc
16eJJ)
16r
(16dLL
16bn
16dJJ)
=
4e 4g 4cc
4r
(8.eettL
32ddLL
32ccJJJ
=
2gg)
(8.bbnttL
32aaLL
32ggJJJ
=
2ccc)
(8.eettL
32ddLL
32ccJJJ
=
4gg)
4gg
(8.bbnttL
32aaLL
32ggJJJ
=
4ccc)
4.eee
8gg#
=
4aa
4.ccc
8ee
=
(8.ffTTL
32eeLL
32ddJJJ
4ggn)
4dd 4ff 4gg 4bbn
=
4ee 4gg 4ccc
4c
4r
=:|!|:
*>B
*^
(4g	2.g
4cc	.
4ee)	.
=	=
2cc (2ee	2.g
4bn 4dd)	.
=	=
(4gg	4r
4cc	2g
4ee)	.
=	=
2cc (2ee	2.g
4bn 4dd)	.
*v	*v
=
(>4a
4dd
4ff
=
4ee
4dd)
([4aa
=
4aa]
4gg
4bn)
=
(8ccL
8g
8e
8g
8f
8dJ)
=
(8.cL
16GJk
4c
4e)
=
(>(2c 2e
4Bn) 4d)
=
*^
(4g	4r
4c	2G
4e)	.
*v	*v
=
(>(2c 2e
4Bn) 4d)
=
(4A
4d
4f
=
4e
4d)
([4a
=
4a]
4g
4Bn)
=
(8cL
8gJ)
8r
8g
8r
8g
=
8f 8gL
8f 8gJ
8r
8f 8g
8r
8f 8g
=
8e- 8gL
8e- 8gJ
8r
8e- 8g
8r
8e- 8g
=
8f 8gL
8f 8gJ
8r
8f 8g
8r
8f 8g
=
8e- 8gL
8e- 8gJ
8r
8e- 8g
8r
8e- 8g
=
8c 8e- 8f#L
8c 8e- 8f#J
8r
8c 8e- 8f#
8r
8c 8e- 8f#
=
8d 8gL
8d 8gJ
8r
8d 8g
8r
8d 8g
=
8d 8a 8ccL
8d 8a 8ccJ
8r
8d 8a 8cc
8r
8d 8a 8cc
=
8d 8g 8b-XL
8d 8g 8b-J
8r
8d 8g 8b-
8r
8d 8g 8b-
=
8g 8b- 8cc#L
8g 8b- 8cc#J
8r
8g 8b- 8cc#
8r
8g 8b- 8cc#
=
8a 8ddL
8a 8ddJ
8r
8a 8dd
8r
8a 8dd
=
8a 8ee 8ggL
8a 8ee 8ggJ
8r
8a 8ee 8gg
8r
8a 8ee 8gg
=
8a 8dd 8ffL
8a 8dd 8ffJ
8r
8a 8dd 8ff
8r
8a 8dd 8ff
=
8dd 8gg#L
8dd 8gg#J
8r
8dd 8gg#
8r
8dd 8gg#
=
8cc# 8aa
8ff (8aaL
8ee 8ggn
8dd 8ff
8cc# 8ee
8dd 8ffJ
=
8cc# 8ee)
(8f 8aL
8e 8g
8d 8f
8c# 8e
8d 8fJ
=
8c# 8eL
8d 8f
8c# 8e
8d 8f
8c# 8e
8d 8fJ
=
4c#) 4e
4r
4r
=
(8cn 8eL
8d 8f
8c 8e
8d 8f
8c 8e
8d 8fJ
=
4c) 4e
4r
4r
=
*^
(8eL	[2.c
8f	.
8e	.
8f	.
8e	.
8fJ	.
=	=
4e)	4c]
4r	2ryy
4r	.
=	=
(8bb-L	[2.ee
8aa	.
8bb-	.
8aa	.
8bb-	.
8aaJ	.
=	=
4bb-)	4ee]
2ryy	4r
.	4r
*v	*v
=
(>2f
4a
=
2cc
4a
=
2b-
4gg
=
8ffL
8eeJ)
4ee
4r
=
(4ff
4a
4dd
=
4g
4.cc
8a)
=
[2.f
=
*^
2.g	(4f]
.	8emL
.	8dJ
.	4e)
=	=
(4a	[2.f
4b-	.
4dd)	.
=	=
8ddL	4f]
(8cc	.
8b-	4r
8a	.
8g	4r
8fJ	.
*v	*v
=
4g
4b-)
4B- 4e
=
4A 4f
4r
(8.cccL
16bb-Jk
=
4aa)
4aa
(8.aaL
16ggJk
=
4ff)
4ff
(4ff
=
4ee 4gg)
4ee' 4gg'
4ee' 4gg'
=
4ee (4gg
4ff 4aa)
(16cccLL
16ddd
16ccc
16bb-JJ
=
4aa)
4aa
(16aaLL
16bb-
16aa
16ggJJ
=
4ff)
4ff
4ff
=
(4gg
4bb-)
4b- (4ee
=
4a 4ff)
4r
(4ccc
=
4ff)
4r
(4cc
=
4f)
4r
(4c#
=
4.d)
(>16fLL
16aJJ
8ddL
16aL
16ddJJ
=
8ffL
16ddL
16ffJJ
8aa'L)
(8aa
8ff
8ddJ)
=
(>32cc#qLLL>
32eeq
32ggqJJJ
4.bb-)
(16aaLL
16ggJJ
16ffLL
16ee
16dd
16cc#JJ
=
4.bb-)
(16aaLL
16ggJJ
16ffLL
16ee
16dd
16cc#JJ)
=
4.dd
(>16fLL
16aJJ
8ddL
16aL
16ddJJ
=
8ffL
16ddL
16ffJJ
8aa'L)
(8aa
8ff
8ddJ)
=
4.bn 4.dd 4.ff 4.aa-
(16ggLL
16ffJJ
16ee-LL
16dd
16cc
16bJJ
=
4.aa-)
(16ggLL
16ffJJ
16ee-LL
16dd
16cc
16bnJJ)
=
4.cc
(>16e-LL
16gJJ
8ccL
16gL
16ccJJ
=
8ee-L
16ccL
16ee-JJ
8gg'L)
(8gg
8ee-
8ccJ)
=
4.an 4.cc 4.ee- 4.gg-
(16ffLL
16ee-JJ
16dd-LL
16cc
16b-
16aJJ
=
4.gg-)
(16ffLL
16ee-JJ
16dd-LL
16cc
16b-
16aJJ)
=
([4b-
16b-LL]
16f
16b-
16fJJ
16dd-LL
16b-
16dd-
16b-JJ
=
16ffLL
16dd-
16ff
16dd-JJ
4bb-)
4r
=
(>[4an
16aLL]
16f
16a
16fJJ
16ccLL
16a
16cc
16aJJ
=
16ffLL
16cc
16ff
16ccJJ
4aa)
4r
=
(>[4a-
16a-LL]
16f
16a-
16fJJ
16ddnLL
16a-
16dd
16a-JJ
=
16ffLL
16dd
16ff
16ddJJ
4aa-
4ff)
=
(32ccqLLL>
32eenq
32ggqJJJ)
(2ccc
16bb-XLL
16aa-
16gg
16ffJJ
=
2ccc
16bb-LL
16aa-
16gg
16ffJJ
=
4.cc)
(16dd-LL
16ccJJ
16b-LL
16a-
16g
16fJJ
=
4cc')
4c'
4r
=
(>32cqq
8an')
8r
8a'
8r
8a'
8r
=
(>32eqq/
(4.cc)
8b-)
4g
=
*^
(8gL	4A
8fJ)	.
(>(4.c 4.f	2ryy
8e 8g))	.
*v	*v
=
(>2e ((2g
4f) 4a))
=
4.b-
(32ccqLLL>
32b-q
32aqJJJ
(8b-L)
8cc
8ddJ)
=
(8ddL
8cc
8bn
8cc
8b-
8gJ
=
8g#L
8a
8b-
8a
8cc
8b-J
=
8aL
8gn
8f
8e
8d
8cJ)
=
8g# (8gg#L
8a 8aa)
8g# (8gg#
8a 8aa)
8g# (8gg#
8a 8aaJ)
=
8bn (8bbnL
8cc 8ccc)
8b (8bb
8cc 8ccc)
(8bb-
8ggnJ)
=
*^
4ryy	(8ggL
.	8ffJ)
(8ggL	4cc
8ffJ)	.
(8aaL	4ee
8ggJ)	.
=	=
(4.gg	(2ee
8gg#	.
4aa)	4ff)
*v	*v
=
4.bb-
(32cccqLLL>
32bb-q
32aaqJJJ)
(8bb-L
8ccc
8dddJ)
=
(8dddL
8ccc
8bbn
8ccc
8bb-
8ggJ
=
8gg#L
8aa
8ccc
8bb-
8ggn
8eeJ)
=
(8ffL
8ccJ)
8r
8cc
8r
8cc
=
8b- 8ccL
8b- 8ccJ
8r
8b- 8cc
8r
8b- 8cc
=
8a- 8ccL<
8a- 8ccJ
8r
8a- 8cc
8r
8a- 8cc
=
8b- 8ccL
8b- 8ccJ
8r
8b- 8cc
8r
8b- 8cc
=
8a- 8ccL<
8a- 8ccJ
8r
8a- 8cc
8r
8a- 8cc
=
8a- 8dd-L
8a- 8dd-J
8r
8a- 8dd-
8r
8a- 8dd-
=
8g 8dd-L<
8g 8dd-J
8r
8g 8dd-
8r
8g 8dd-
=
8g 8ccL
8g 8ccJ
8r
8g 8cc
8r
8g 8cc
=
8f 8ccL
8f 8ccJ
8r
8f 8cc
8f 8b-L
8f 8b-J
=
8r
8f 8b-
8en 8b-L
8e 8b-J
8r
8e 8b-
=
8r
8f 8a-
8r
8f 8a-
8r
8f 8a-
=
8e 8gL
(8a- 8cc
8g 8b-
8f 8a-
8e 8g
8f 8a-J
=
8e) 8gL
(8a- 8cc
8g 8b-
8f 8a-
8e 8g
8f) 8a-J
=
(8e 8gL
8f 8a-
8e 8g
8f 8a-
8e 8g
8f 8a-J
=
8e 8gL
8d# 8f#
8e 8g
8f#X 8an
8g 8b-
8a) 8ccJ
=
*^
4b-/ 4dd/	4ryy
4b- 4dd	4fn
4b- 4dd	4f
=	=
2b- (2dd	2.f
4a 4cc)	.
=	=
(16ccLK	4e 4g
8.b-J)	.
4g 4b-	4e
4g 4b-	4e
*v	*v
=
(>(2e 2g 2b-
4f) 4a)
=
(8a 8ccL
8g) 8b-J
(4f 4a
4e) 4g
=
8f 8a
8ff'L
8gg'
8aa'
8bb-'
8ccc'J
=
4ddd
4ddd
4ddd
=
(4.ddd
16eeeLL
16dddJJ
4ccc)
=
*^
(16cccLK	4ee
8.bb-J)	.
4bb-	4ee
4bb-	4ee
=	=
(2bb-	(2ee
4aa)	4ff)
*v	*v
=
8aa (8cccL
8gg 8bb-J)
4ff 4aa
4ee 4gg
=
8aa 8cccL
8aa 8cccJ
8r
8gg 8bb-
8r
8ff 8aa
=
8r
8b- 8gg
8r
8a 8ff
8r
8g 8ee
=
16r
(16aaLL
16ccc
16aaJJ)
16r
(16ggLL
16bb-
16ggJJ)
16r
(16ffLL
16aa
16ffJJ)
=
16r
(16b-LL
16gg
16b-JJ)
16r
(16aLL
16ff
16aJJ)
16r
(16gLL<
16ee
16gJJ)
=
4a 4cc 4ff
4r
(>8.attL
32gLL
32fJJJ
=
2cc)
(8.eettL
32ddLL
32ccJJJ
=
2ff)
(8.aaTTL
32ggLL
32ffJJJ
=
4ccc')
4ccc'
(8.eeettL
32dddLL
32cccJJJ
=
4fff)
4.aa
8cc#
=
4dd
4.ff
8a
=
(8.b-TTL
32aLL
32gJJJ
4ccn)
4g 4cc 4ee
=
4a 4cc 4ff
4f
4r
==:|!
*-
